icons/dark/sh.svg

<svg width="16" height="16" viewBox="0 0 16 16" fill="none" xmlns="http://www.w3.org/2000/svg">
<path d="M9.70703 1.29297L12.707 4.29297L13 5V14L12 15H7V14H12V6H8V2H3V10H2V2L3 1H9L9.70703 1.29297ZM9 5H12L9 2V5Z" fill="#C5C5C5"/>
<path d="M2.91282 13.9615C2.91282 14.1821 2.8547 14.3769 2.73846 14.5462C2.62393 14.7154 2.45897 14.8479 2.24359 14.9436C2.02821 15.0393 1.76923 15.0872 1.46667 15.0872C1.13162 15.0872 0.850427 15.0385 0.623077 14.941C0.397436 14.8419 0.210256 14.7197 0.0615385 14.5744L0.487179 14.1026C0.618803 14.2171 0.764103 14.306 0.923077 14.3692C1.08205 14.4308 1.25641 14.4615 1.44615 14.4615C1.5641 14.4615 1.66752 14.4444 1.75641 14.4103C1.8453 14.3761 1.91453 14.3265 1.9641 14.2615C2.01368 14.1966 2.03846 14.1179 2.03846 14.0256C2.03846 13.9385 2.0188 13.865 1.97949 13.8051C1.94017 13.7453 1.8735 13.6915 1.77949 13.6436C1.68718 13.5957 1.55812 13.547 1.39231 13.4974C1.11538 13.412 0.892308 13.3179 0.723077 13.2154C0.555556 13.1128 0.433333 12.994 0.35641 12.859C0.281197 12.7239 0.24359 12.5667 0.24359 12.3872C0.24359 12.1701 0.303419 11.9846 0.423077 11.8308C0.544444 11.6769 0.706838 11.5598 0.910256 11.4795C1.11368 11.3974 1.33761 11.3564 1.58205 11.3564C1.85726 11.3564 2.1 11.3966 2.31026 11.4769C2.52051 11.5556 2.70256 11.6684 2.85641 11.8154L2.45897 12.2718C2.33932 12.1709 2.21026 12.0966 2.07179 12.0487C1.93333 11.9991 1.79231 11.9744 1.64872 11.9744C1.54274 11.9744 1.44957 11.988 1.36923 12.0154C1.28889 12.041 1.2265 12.0795 1.18205 12.1308C1.13761 12.1821 1.11538 12.2462 1.11538 12.3231C1.11538 12.3983 1.13675 12.4615 1.17949 12.5128C1.22222 12.5641 1.29658 12.6128 1.40256 12.659C1.50855 12.7034 1.65556 12.7556 1.84359 12.8154C2.06752 12.8838 2.25897 12.9658 2.41795 13.0615C2.57863 13.1556 2.70085 13.2744 2.78462 13.4179C2.87009 13.5615 2.91282 13.7427 2.91282 13.9615ZM5.0454 15V13.5026H4.18386V15H3.34284V11.4462H4.18386V12.8103H5.0454V11.4462H5.88643V15H5.0454Z" fill="#C5C5C5"/>
</svg>

<svg xmlns="http://www.w3.org/2000/svg" width="16" height="16" fill="#c5c5c5" xmlns:v="https://vecta.io/nano"><path d="M9.707 1.293l3 3L13 5v9l-1 1H7v-1h5V6H8V2H3v8H2V2l1-1h6l.707.293zM9 5h3L9 2v3zm-6.087 8.962a1.01 1.01 0 0 1-.174.585 1.13 1.13 0 0 1-.495.397c-.216.095-.474.144-.777.144-.335 0-.616-.049-.844-.146s-.413-.221-.562-.367l.426-.472a1.51 1.51 0 0 0 .436.267c.159.062.333.092.523.092.118 0 .221-.017.31-.051s.158-.084.208-.149.074-.144.074-.236c0-.087-.02-.161-.059-.221s-.106-.114-.2-.162a2.31 2.31 0 0 0-.387-.146c-.277-.085-.5-.18-.669-.282s-.29-.221-.367-.356-.113-.292-.113-.472a.88.88 0 0 1 .179-.556c.121-.154.284-.271.487-.351a1.78 1.78 0 0 1 .672-.123c.275 0 .518.04.728.12s.392.191.546.338l-.397.456a1.22 1.22 0 0 0-.387-.223 1.28 1.28 0 0 0-.423-.074c-.106 0-.199.014-.279.041s-.143.064-.187.115-.067.115-.067.192.021.138.064.19.117.1.223.146a5.56 5.56 0 0 0 .441.156 2.57 2.57 0 0 1 .574.246c.161.094.283.213.367.356s.128.325.128.544zM5.045 15v-1.497h-.862V15h-.841v-3.554h.841v1.364h.862v-1.364h.841V15h-.841z"/></svg>
